X:3
T:Twinkle Twinkle Little Star (Full)
M:4/4
L:1/8
Q:1/4=100
K:C
CC GG AA G2 | FF EE DD C2 |
GG FF EE D2 | GG FF EE D2 |
CC GG AA G2 | FF EE DD C2 |
GG GG AA A2 | FF FF GG G2 |
GG FF EE D2 | GG FF EE D2 |
CC GG AA G2 | FF EE DD C2 |
CC DD EE F2 | GG FF EE D2 |
CC DD EE F2 | GG GG GG G2 |
CC GG AA G2 | FF EE DD C2 |]